svg/information_variant.svg

<svg xmlns="http://www.w3.org/2000/svg" viewBox="0 0 24 24"><path d="M13.5 4A1.5 1.5 0 0 0 12 5.5 1.5 1.5 0 0 0 13.5 7 1.5 1.5 0 0 0 15 5.5 1.5 1.5 0 0 0 13.5 4m-.36 4.77c-1.19.1-4.44 2.69-4.44 2.69-.2.15-.14.14.02.42.16.27.14.29.33.16.2-.13.53-.34 1.08-.68 2.12-1.36.34 1.78-.57 7.07-.36 2.62 2 1.27 2.61.87.6-.39 2.21-1.5 2.37-1.61.22-.15.06-.27-.11-.52-.12-.17-.24-.05-.24-.05-.65.43-1.84 1.33-2 .76-.19-.57 1.03-4.48 1.7-7.17.11-.64.41-2.04-.75-1.94"/></svg>

<?xml version="1.0" encoding="UTF-8"?><!DOCTYPE svg PUBLIC "-//W3C//DTD SVG 1.1//EN" "http://www.w3.org/Graphics/SVG/1.1/DTD/svg11.dtd"><svg xmlns="http://www.w3.org/2000/svg" xmlns:xlink="http://www.w3.org/1999/xlink" version="1.1" id="mdi-information-variant" width="24" height="24" viewBox="0 0 24 24"><path d="M13.5,4A1.5,1.5 0 0,0 12,5.5A1.5,1.5 0 0,0 13.5,7A1.5,1.5 0 0,0 15,5.5A1.5,1.5 0 0,0 13.5,4M13.14,8.77C11.95,8.87 8.7,11.46 8.7,11.46C8.5,11.61 8.56,11.6 8.72,11.88C8.88,12.15 8.86,12.17 9.05,12.04C9.25,11.91 9.58,11.7 10.13,11.36C12.25,10 10.47,13.14 9.56,18.43C9.2,21.05 11.56,19.7 12.17,19.3C12.77,18.91 14.38,17.8 14.54,17.69C14.76,17.54 14.6,17.42 14.43,17.17C14.31,17 14.19,17.12 14.19,17.12C13.54,17.55 12.35,18.45 12.19,17.88C12,17.31 13.22,13.4 13.89,10.71C14,10.07 14.3,8.67 13.14,8.77Z" /></svg>
